svg/l/FJ.svg

<svg width="32" height="24" viewBox="0 0 32 24" fill="none" xmlns="http://www.w3.org/2000/svg">
<g clip-path="url(#clip0_270_67382)">
<rect width="32" height="24" fill="white"/>
<path fill-rule="evenodd" clip-rule="evenodd" d="M0 0V24H32V0H0Z" fill="#67BFE5"/>
<mask id="mask0_270_67382" style="mask-type:luminance" maskUnits="userSpaceOnUse" x="0" y="0" width="32" height="24">
<path fill-rule="evenodd" clip-rule="evenodd" d="M0 0V24H32V0H0Z" fill="white"/>
</mask>
<g mask="url(#mask0_270_67382)">
</g>
<g clip-path="url(#clip1_270_67382)">
<rect width="18" height="14" fill="#2E42A5"/>
<path d="M-2.00427 12.9998L1.95668 14.737L18.0899 1.88875L20.1792 -0.69278L15.9435 -1.2734L9.36317 4.26329L4.06667 7.99372L-2.00427 12.9998Z" fill="#F7FCFF"/>
<path d="M-1.46204 14.2169L0.555885 15.2251L19.4289 -0.932648H16.5955L-1.46204 14.2169Z" fill="#F50100"/>
<path d="M20.0043 12.9998L16.0433 14.737L-0.0898743 1.88875L-2.17919 -0.69278L2.05648 -1.2734L8.63683 4.26329L13.9333 7.99372L20.0043 12.9998Z" fill="#F7FCFF"/>
<path d="M19.8691 13.8733L17.8512 14.8815L9.81489 7.96351L7.43229 7.19059L-2.3802 -0.683947H0.453194L10.2602 7.00368L12.8651 7.9305L19.8691 13.8733Z" fill="#F50100"/>
<path fill-rule="evenodd" clip-rule="evenodd" d="M9.98451 0H7.98451V6H0V8H7.98451V14H9.98451V8H18V6H9.98451V0Z" fill="#F50100"/>
<path fill-rule="evenodd" clip-rule="evenodd" d="M6.48451 0H11.4845V4.5H18V9.5H11.4845L11.5 14H6.5L6.48451 9.5H0V4.5H6.48451V0ZM7.98451 6H0V8H7.98451V14H9.98451V8H18V6H9.98451V0H7.98451V6Z" fill="#F7FCFF"/>
</g>
<path fill-rule="evenodd" clip-rule="evenodd" d="M20 10H29.6552V18.3333C29.6552 18.3333 28.8455 22 24.8276 22C20.8097 22 20 18.3333 20 18.3333V10Z" fill="#F7FCFF"/>
<mask id="mask1_270_67382" style="mask-type:luminance" maskUnits="userSpaceOnUse" x="20" y="10" width="10" height="12">
<path fill-rule="evenodd" clip-rule="evenodd" d="M20 10H29.6552V18.3333C29.6552 18.3333 28.8455 22 24.8276 22C20.8097 22 20 18.3333 20 18.3333V10Z" fill="white"/>
</mask>
<g mask="url(#mask1_270_67382)">
<rect x="20" y="10" width="9.65517" height="3" fill="#C3352C"/>
<rect x="24.1379" y="12.6667" width="1.37931" height="9.33333" fill="#C3352C"/>
<rect x="20" y="16.3333" width="9.65517" height="1.33333" fill="#C3352C"/>
<path fill-rule="evenodd" clip-rule="evenodd" d="M22.5405 20.7371C23.121 21.5577 23.5941 21.8781 23.9286 21.3944C24.1636 21.0546 24.1878 20.7147 23.853 20.6481C23.6588 20.4013 23.5217 20.2088 23.4434 20.0745L23.4547 20.0639C23.5486 19.9726 23.5521 19.8509 23.5335 19.8055C23.5265 19.7434 23.573 19.659 23.8748 19.4283C24.148 19.2194 24.2693 19.0227 24.0902 18.806C23.996 18.6921 23.9114 18.6693 23.6445 18.6281L23.5625 18.6153C23.4835 18.6027 23.4261 18.5901 23.3899 18.5792L23.2044 18.2236C22.8168 18.2117 22.5139 18.28 22.1826 18.4199C22.0399 18.4802 21.9437 18.5212 21.8795 18.5485C21.7818 18.5901 21.7583 18.6001 21.7575 18.5986C21.7573 18.5982 21.7593 18.5965 21.762 18.5944C21.7697 18.5883 21.7825 18.5781 21.764 18.5781C21.6941 18.5781 21.6184 18.5703 21.4085 18.5436L21.3673 18.5384C20.7638 18.4626 20.6126 18.465 20.5148 18.746C20.366 19.1734 21.2469 19.957 21.7147 20.0512C21.9489 20.0983 22.2293 20.3226 22.5405 20.7371ZM23.1967 20.1486C23.2535 20.1486 23.2973 20.1463 23.3358 20.1359L23.3475 20.1102C23.3161 20.1316 23.2689 20.1486 23.1967 20.1486ZM20.9941 18.9682C20.9817 18.9537 20.9784 18.935 20.987 18.9103C20.9852 18.9154 20.9908 18.9264 21.0026 18.9419C21.0142 18.9573 21.0316 18.9771 21.0538 19.0001C21.027 18.9925 21.0062 18.9823 20.9941 18.9682ZM21.8133 19.561C21.6457 19.5272 21.2193 19.1725 21.0538 19.0001C21.0972 19.0126 21.1564 19.0186 21.22 19.0251C21.2478 19.028 21.2764 19.0309 21.305 19.0345L21.3455 19.0396C21.5813 19.0696 21.6636 19.0781 21.764 19.0781C21.8218 19.0781 21.8098 19.0981 21.8026 19.1102C21.8004 19.1139 21.7986 19.1169 21.7994 19.1183C21.8028 19.124 21.8484 19.1047 22.0763 19.008L22.0763 19.008L22.0763 19.0079C22.1537 18.9751 22.2522 18.9333 22.3771 18.8806C22.5541 18.8058 22.7158 18.7574 22.8932 18.7356C22.9128 18.8193 22.9615 18.8951 23.0409 18.9567C23.1473 19.0392 23.2676 19.074 23.4745 19.1076C23.2173 19.3192 23.0883 19.4962 23.0475 19.6688C22.8163 19.7419 22.8373 20.0026 22.9761 20.2631C23.0728 20.4447 23.2556 20.702 23.5276 21.0425L23.7229 21.1364C23.6653 21.1364 23.6331 21.11 23.6086 21.09C23.5778 21.0646 23.5592 21.0494 23.5173 21.1101C23.5145 21.1142 23.3326 20.991 22.9445 20.4426C22.5625 19.9336 22.1919 19.6372 21.8133 19.561ZM23.0327 19.8606C23.0362 19.8577 23.0359 19.8538 23.0355 19.8499L23.0355 19.8498L23.0327 19.8606ZM23.1926 19.6487L23.1776 19.6489L23.1846 19.6494C23.1873 19.6489 23.1899 19.6487 23.1926 19.6487ZM23.1967 19.6486C23.1953 19.6486 23.194 19.6486 23.1926 19.6487L23.1967 19.6486Z" fill="#979797"/>
<path d="M21.6551 16.1102C21.6551 16.1102 21.178 15.4502 21.178 15.2149" stroke="#964C36"/>
<path d="M21.3588 15.5428C21.3588 15.5428 20.7488 15.2823 20.7488 15.5428" stroke="#2A8E51"/>
<path d="M21.3489 15.2689C21.3489 15.2689 20.9198 14.7231 20.5973 14.7231C20.2747 14.7231 20.2824 14.996 20.2824 14.996" stroke="#2A8E51"/>
<path d="M21.104 14.722C21.104 14.722 20.9126 13.8292 20.6059 13.8292C20.2993 13.8292 20.2993 14.2756 20.2993 14.2756" stroke="#2A8E51"/>
<path d="M21.1814 14.7202C21.1814 14.7202 21.096 13.9551 21.4909 13.9551" stroke="#2A8E51"/>
<path d="M22.261 15.9811C22.261 15.9811 22.0384 15.1977 22.1189 14.9766" stroke="#964C36"/>
<path d="M22.1767 15.3466C22.1767 15.3466 21.6926 14.8932 21.6035 15.138" stroke="#2A8E51"/>
<path d="M22.2611 15.0858C22.2611 15.0858 22.0446 14.4261 21.7415 14.3158C21.4384 14.2055 21.3523 14.4646 21.3523 14.4646" stroke="#2A8E51"/>
<path d="M22.218 14.4881C22.218 14.4881 22.3435 13.5837 22.0553 13.4789C21.7672 13.374 21.6145 13.7935 21.6145 13.7935" stroke="#2A8E51"/>
<path d="M22.2914 14.513C22.2914 14.513 22.4728 13.7648 22.8438 13.8998" stroke="#2A8E51"/>
<path d="M22.7521 16.2601C22.7521 16.2601 23.0684 15.5097 23.0155 15.2804" stroke="#964C36" stroke-width="0.7"/>
<path d="M22.9131 15.6407C22.9131 15.6407 23.4488 15.2496 23.5075 15.5034" stroke="#2A8E51" stroke-width="0.7"/>
<path d="M22.8612 15.3715C22.8612 15.3715 23.1564 14.7431 23.4707 14.6706C23.785 14.598 23.8389 14.8657 23.8389 14.8657" stroke="#2A8E51" stroke-width="0.7"/>
<path d="M22.9768 14.7835C22.9768 14.7835 22.9625 13.8706 23.2613 13.8016C23.5601 13.7326 23.6605 14.1675 23.6605 14.1675" stroke="#2A8E51" stroke-width="0.7"/>
<path d="M22.9008 14.7992C22.9008 14.7992 22.8119 14.0345 22.4273 14.1233" stroke="#2A8E51" stroke-width="0.7"/>
<path d="M26.698 15.8018C26.698 15.8018 26.94 14.6884 27.6286 14.6884C28.3173 14.6884 28.6254 15.8648 28.6254 15.8648" stroke="#2A8E51" stroke-width="0.7"/>
<path d="M26.1293 15.0417C26.1293 15.0417 26.5001 14.384 27.724 14.4378C28.9478 14.4915 29.1708 15.0417 29.1708 15.0417" stroke="#2A8E51" stroke-width="0.7"/>
<path d="M25.882 14.2053C25.882 14.2053 26.5542 13.3726 27.4964 14.0784L27.8156 14.2053C27.8156 14.2053 28.1357 13.2617 29.682 14.2053" stroke="#2A8E51" stroke-width="0.7"/>
<path d="M27.7384 16.037C27.7384 16.037 27.7876 14.9977 27.9524 14.7122" stroke="#964C36"/>
<path d="M29.0987 18.3139C29.0987 18.3139 28.4806 18.0232 28.2956 18.3139C28.1107 18.6046 25.8828 21.2757 25.8828 21.2757" stroke="#964C36"/>
<path fill-rule="evenodd" clip-rule="evenodd" d="M26.9642 18.5952L28.345 19.5604C28.345 19.5604 28.9805 19.1071 28.6628 18.8511C28.345 18.5952 27.4792 18.1439 27.4792 18.1439L26.9642 18.5952Z" fill="#FFF203"/>
<path fill-rule="evenodd" clip-rule="evenodd" d="M26.9166 18.6445C26.9166 18.6445 26.5967 18.9794 26.5967 19.2354C26.5967 19.4913 26.2991 20.1774 26.2991 20.1774C26.2991 20.1774 27.1315 20.6898 27.3043 20.3634C27.4772 20.037 28.5997 20.2325 28.4018 19.7339C28.2038 19.2354 26.9166 18.6445 26.9166 18.6445Z" fill="#00A651"/>
<path fill-rule="evenodd" clip-rule="evenodd" d="M21.0563 11.1823C21.0563 11.1823 21.7936 10.804 22.1586 11.1823C22.5236 11.5606 22.8226 11.151 22.8226 10.9227C22.8226 10.6945 23.4021 9.91104 23.4021 10.5467C23.4021 11.1823 23.2217 11.5412 23.7311 11.5412C24.2405 11.5412 26.5342 10.6632 27.0843 10.9227C27.6343 11.1823 28.0552 11.1177 27.9154 10.7453C27.7755 10.3729 27.4162 10.1401 26.7243 10.3434C26.0323 10.5467 26.1956 10.7453 25.5976 10.7453C24.9995 10.7453 24.3339 10.5467 24.3339 10.5467C24.3339 10.5467 24.5209 10.2127 25.2036 10.4502C25.8864 10.6878 26.8281 10.156 27.0843 10.156C27.3404 10.156 28.0453 10.1401 28.1152 10.3434C28.185 10.5467 28.6107 10.7332 28.2862 10.9227C27.9618 11.1122 27.4268 11.231 27.7949 11.4738C28.163 11.7166 29.0094 11.6698 29.0502 11.9224C29.091 12.1749 29.4922 12.5521 29.3312 12.5521C29.1702 12.5521 28.8792 12.9078 28.6082 12.7995C28.3373 12.6912 28.3054 12.5961 28.5652 12.5083C28.8251 12.4206 28.8225 12.0516 28.6082 12.0516C28.3939 12.0516 28.4985 12.1809 28.0106 12.0516C27.5227 11.9224 26.8769 11.7786 26.9158 12.0516C26.9546 12.3246 27.2723 12.7436 26.6862 12.7995C26.1001 12.8553 25.8257 13.0796 25.7116 12.899C25.5976 12.7184 25.1898 12.4778 25.5104 12.4007C25.8311 12.3235 26.1375 12.6629 26.2529 12.6075C26.3684 12.5521 26.6302 12.5212 26.4109 12.2864C26.1917 12.0516 25.8303 11.9134 26.1654 11.7376C26.5004 11.5619 26.236 11.5583 25.5976 11.9224C24.9591 12.2864 24.604 12.5958 24.0435 12.5521C23.483 12.5083 23.273 12.5674 23.0929 12.5083C22.9127 12.4493 22.0353 13.1604 21.7827 12.98C21.53 12.7995 20.7143 12.7303 20.8612 12.5083C21.008 12.2864 21.2051 12.1722 21.4247 12.2864C21.6443 12.4007 21.8625 12.5149 22.0105 12.4007C22.1586 12.2864 22.5862 11.8944 22.4786 11.816C22.3711 11.7376 22.4751 11.4738 21.8661 11.4738C21.2572 11.4738 21.0431 11.7678 20.8985 11.5826C20.7539 11.3973 21.0563 11.1823 21.0563 11.1823Z" fill="#FFD100"/>
</g>
</g>
<defs>
<clipPath id="clip0_270_67382">
<rect width="32" height="24" fill="white"/>
</clipPath>
<clipPath id="clip1_270_67382">
<rect width="18" height="14" fill="white"/>
</clipPath>
</defs>
</svg>

<svg width="32" height="24" fill="none" xmlns="http://www.w3.org/2000/svg">
  <mask id="a" maskUnits="userSpaceOnUse" x="0" y="0" width="32" height="24">
    <path fill="#fff" d="M0 0h32v24H0z"/>
  </mask>
  <g mask="url(#a)">
    <path fill-rule="evenodd" clip-rule="evenodd" d="M0 0v24h32V0H0z" fill="#67BFE5"/>
    <mask id="b" maskUnits="userSpaceOnUse" x="0" y="0" width="32" height="24">
      <path fill-rule="evenodd" clip-rule="evenodd" d="M0 0v24h32V0H0z" fill="#fff"/>
    </mask>
    <g mask="url(#b)">
      <path fill-rule="evenodd" clip-rule="evenodd" d="M20 10h9.655v8.333S28.845 22 24.828 22C20.81 22 20 18.333 20 18.333V10z" fill="#F7FCFF"/>
      <mask id="c" maskUnits="userSpaceOnUse" x="20" y="10" width="10" height="12">
        <path fill-rule="evenodd" clip-rule="evenodd" d="M20 10h9.655v8.333S28.845 22 24.828 22C20.81 22 20 18.333 20 18.333V10z" fill="#fff"/>
      </mask>
      <g mask="url(#c)">
        <path fill="#C3352C" d="M20 10h9.655v3H20z"/>
        <path fill="#C3352C" d="M24.138 12.667h1.379V22h-1.379z"/>
        <path fill="#C3352C" d="M20 16.333h9.655v1.333H20z"/>
        <path fill-rule="evenodd" clip-rule="evenodd" d="M22.54 20.737c.581.82 1.054 1.141 1.389.657.235-.34.259-.68-.076-.746a5.564 5.564 0 01-.41-.573l.012-.011c.094-.091.097-.213.079-.259-.008-.062.039-.146.34-.377.274-.209.395-.405.216-.622-.094-.114-.179-.137-.445-.178l-.082-.013a1.414 1.414 0 01-.173-.036l-.186-.355a2.289 2.289 0 00-1.021.196l-.303.128a1.208 1.208 0 01-.118.046c.008-.006.02-.016.002-.016-.07 0-.146-.008-.355-.034l-.042-.006c-.603-.075-.754-.073-.852.208-.149.427.732 1.211 1.2 1.305.234.047.514.272.826.686zm.657-.588c.056 0 .1-.003.139-.013l.012-.026a.261.261 0 01-.151.039zm-2.203-1.18c-.012-.015-.016-.034-.007-.059-.002.005.004.016.016.032a.672.672 0 00.05.058.122.122 0 01-.059-.032zm.82.592c-.168-.034-.595-.389-.76-.56.043.012.102.018.166.024l.085.01.04.005c.236.03.319.038.419.038.058 0 .046.02.039.032l-.004.008c.004.006.05-.013.277-.11l.301-.127c.177-.075.339-.124.516-.145a.39.39 0 00.148.22c.106.083.227.118.433.152-.257.211-.386.388-.427.56-.23.074-.21.335-.07.595.096.182.279.439.55.78l.196.093a.164.164 0 01-.114-.046c-.031-.025-.05-.04-.092.02-.002.004-.184-.119-.572-.667-.383-.51-.753-.806-1.132-.882zm1.219.3c.003-.003.003-.007.002-.011l-.002.01zm.16-.212h-.015.015zm.004 0h-.004.004z" fill="#979797"/>
        <path d="M21.655 16.11s-.477-.66-.477-.895" stroke="#964C36"/>
        <path d="M21.359 15.543s-.61-.26-.61 0m.6-.274s-.43-.546-.752-.546-.315.273-.315.273m.822-.274s-.191-.893-.498-.893-.307.447-.307.447m.882.444s-.085-.765.31-.765" stroke="#2A8E51"/>
        <path d="M22.261 15.981s-.223-.783-.142-1.004" stroke="#964C36"/>
        <path d="M22.177 15.347s-.484-.454-.573-.209m.657-.052s-.216-.66-.52-.77c-.303-.11-.389.149-.389.149m.866.023s.125-.904-.163-1.01c-.288-.104-.44.316-.44.316m.676.719s.182-.748.553-.613" stroke="#2A8E51"/>
        <path d="M22.752 16.26s.316-.75.264-.98" stroke="#964C36" stroke-width=".7"/>
        <path d="M22.913 15.64s.536-.39.595-.137m-.647-.132s.295-.628.61-.7c.314-.073.368.195.368.195m-.862-.082s-.015-.913.284-.982c.3-.07.4.366.4.366m-.761.632s-.088-.766-.473-.677m4.271 1.679s.242-1.114.93-1.114c.69 0 .997 1.177.997 1.177" stroke="#2A8E51" stroke-width=".7"/>
        <path d="M26.13 15.042s.37-.658 1.594-.604c1.224.053 1.447.604 1.447.604m-3.289-.837s.672-.832 1.614-.127l.32.127s.32-.943 1.866 0" stroke="#2A8E51" stroke-width=".7"/>
        <path d="M27.738 16.037s.05-1.04.214-1.325m1.147 3.602s-.618-.29-.803 0c-.185.29-2.413 2.962-2.413 2.962" stroke="#964C36"/>
        <path fill-rule="evenodd" clip-rule="evenodd" d="M26.964 18.595l1.381.965s.636-.453.318-.709c-.318-.256-1.184-.707-1.184-.707l-.515.451z" fill="#FFF203"/>
        <path fill-rule="evenodd" clip-rule="evenodd" d="M26.917 18.645s-.32.334-.32.59c0 .256-.298.942-.298.942s.832.513 1.005.186c.173-.326 1.296-.13 1.098-.63-.198-.498-1.485-1.088-1.485-1.088z" fill="#00A651"/>
        <path fill-rule="evenodd" clip-rule="evenodd" d="M21.056 11.182s.738-.378 1.103 0c.365.379.664-.031.664-.26 0-.228.58-1.011.58-.375 0 .635-.181.994.328.994.51 0 2.803-.878 3.353-.618.55.26.971.195.831-.178-.14-.372-.499-.605-1.19-.402-.693.204-.53.402-1.127.402-.598 0-1.264-.198-1.264-.198s.187-.334.87-.097c.682.238 1.624-.294 1.88-.294.256 0 .961-.016 1.031.187.07.204.496.39.171.58-.324.19-.86.308-.491.55.368.244 1.214.197 1.255.45.041.252.442.63.281.63-.16 0-.452.355-.723.246-.27-.108-.303-.203-.043-.29.26-.088.258-.457.043-.457-.214 0-.11.129-.597 0-.488-.13-1.134-.273-1.095 0 .039.273.356.692-.23.748-.586.055-.86.28-.974.099-.114-.18-.522-.421-.202-.498.321-.078.627.262.743.207.115-.056.377-.087.158-.322-.22-.234-.58-.373-.246-.548.335-.176.071-.18-.567.184-.639.364-.994.674-1.554.63-.561-.044-.771.015-.951-.044-.18-.059-1.058.652-1.31.472-.253-.18-1.069-.25-.922-.472.147-.222.344-.336.564-.222.22.115.438.229.585.115.149-.115.576-.507.469-.585-.108-.078-.004-.342-.613-.342s-.823.294-.968.109c-.144-.186.158-.4.158-.4z" fill="#FFD100"/>
      </g>
      <path fill="#2B409A" d="M0 0h18v14H0z"/>
      <mask id="d" maskUnits="userSpaceOnUse" x="0" y="0" width="18" height="14">
        <path fill="#fff" d="M0 0h18v14H0z"/>
      </mask>
      <g mask="url(#d)">
        <path d="M-2.004 13l3.96 1.737L18.09 1.889l2.09-2.582-4.236-.58-6.58 5.536-5.297 3.73L-2.004 13z" fill="#F7FCFF"/>
        <path d="M-1.462 14.217l2.018 1.008L19.429-.933h-2.833l-18.058 15.15z" fill="#F50100"/>
        <path d="M20.004 13l-3.96 1.737L-.09 1.889-2.18-.693l4.236-.58 6.58 5.536 5.297 3.73L20.004 13z" fill="#F7FCFF"/>
        <path d="M19.87 13.873l-2.019 1.009-8.036-6.918-2.383-.773L-2.38-.684H.453l9.807 7.688 2.605.927 7.004 5.942z" fill="#F50100"/>
        <mask id="e" maskUnits="userSpaceOnUse" x="-2" y="-2" width="22" height="18" fill="#000">
          <path fill="#fff" d="M-2-2h22v18H-2z"/>
          <path fill-rule="evenodd" clip-rule="evenodd" d="M9.985 0h-2v6H0v2h7.985v6h2V8H18V6H9.985V0z"/>
        </mask>
        <path fill-rule="evenodd" clip-rule="evenodd" d="M9.985 0h-2v6H0v2h7.985v6h2V8H18V6H9.985V0z" fill="#F50100"/>
        <path d="M7.985 0v-1.5h-1.5V0h1.5zm2 0h1.5v-1.5h-1.5V0zm-2 6v1.5h1.5V6h-1.5zM0 6V4.5h-1.5V6H0zm0 2h-1.5v1.5H0V8zm7.985 0h1.5V6.5h-1.5V8zm0 6h-1.5v1.5h1.5V14zm2 0v1.5h1.5V14h-1.5zm0-6V6.5h-1.5V8h1.5zM18 8v1.5h1.5V8H18zm0-2h1.5V4.5H18V6zM9.985 6h-1.5v1.5h1.5V6zm-2-4.5h2v-3h-2v3zm1.5 4.5V0h-3v6h3zM0 7.5h7.985v-3H0v3zm1.5.5V6h-3v2h3zm6.485-1.5H0v3h7.985v-3zm1.5 7.5V8h-3v6h3zm.5-1.5h-2v3h2v-3zM8.485 8v6h3V8h-3zM18 6.5H9.985v3H18v-3zM16.5 6v2h3V6h-3zM9.985 7.5H18v-3H9.985v3zM8.485 0v6h3V0h-3z" fill="#F7FCFF" mask="url(#e)"/>
      </g>
    </g>
  </g>
</svg>
